X:34
T:Within a Mile of Edenburgh. JClw.34
M:4/4
L:1/8
Q:1/4=160
A:N. Shropshire
Z:Neil Brookes 2006
K:C
e>f|g>e d>ec2e>c|A>c G>E G2c>d|e>g g>e a>c’ cd/e/|e2d2z2 e>f|!
g>e d>ec2e>c|A>c G>E G2c>d|e>ga>c’ g>e d3/2{edcd}d/|c4z4|!
c>de>f g>e c’2|c>de>f g>eHc’c|c>dcA GE G>c|ecegHa2Hc b/a/|!
g>ee>c A>c G>c|e>g d3/2{edcd}e/2 c2|]

